Square/OmaSp.svg

<?xml version="1.0" encoding="UTF-8"?>
<svg width="32px" height="32px" viewBox="0 0 32 32" version="1.1" xmlns="http://www.w3.org/2000/svg" xmlns:xlink="http://www.w3.org/1999/xlink">
    <!-- Generator: Sketch 52.3 (67297) - http://www.bohemiancoding.com/sketch -->
    <title>Square/OmaSp</title>
    <desc>Created with Sketch.</desc>
    <g id="Square/OmaSp" stroke="none" stroke-width="1" fill="none" fill-rule="evenodd">
        <path d="M0,0 L32,0 L32,32 L0,32 L0,0 Z M12.6675833,14.4031745 C13.312002,14.4031745 13.7062896,14.8064574 13.7062896,15.5271169 L13.7062896,18.6030443 L14.4231761,18.6030443 L14.4231761,15.4960952 C14.4231761,14.4676043 13.8309655,13.7994432 12.7509604,13.7994432 C11.9093979,13.7994432 11.4208242,14.2130667 11.1504333,14.7754357 C10.9322504,14.2242028 10.3610788,13.7994432 9.60211418,13.7994432 C8.99977365,13.7994432 8.50106997,14.0221636 8.14730205,14.5948731 L8.14730205,13.926712 L7.44132466,13.926712 L7.44132466,18.6038398 L8.15821119,18.6038398 L8.15821119,15.6551811 C8.15821119,14.9655434 8.66704479,14.4039699 9.51951639,14.4039699 C10.174065,14.4039699 10.5691318,14.8072529 10.5691318,15.5279124 L10.5691318,18.6038398 L11.2829014,18.6038398 L11.2829014,15.7076795 C11.2829014,14.8915684 11.8439431,14.4031745 12.6644665,14.4031745 L12.6675833,14.4031745 Z M26.9640152,12.8974257 L27.6598627,12.8974257 C27.6639194,12.7588118 27.6534705,12.6201519 27.6286937,12.4838022 C27.4003809,11.2111143 26.3819345,10.5 25.2598512,10.5 C23.9507541,10.5 22.9011387,11.5181503 22.9011387,12.8966303 C22.9011387,14.3920385 23.784,14.9329308 23.784,16.3328874 C23.784,17.3510377 23.1606204,18.124991 22.1834729,18.124991 C21.1759356,18.124991 20.531517,17.2762673 20.531517,16.269253 C20.531517,15.2622388 21.1548966,14.5932822 21.8515233,14.4771495 C21.9304759,14.4648218 22.0101185,14.4576484 22.089966,14.4556729 L22.089966,13.8408056 C22.0174981,13.8408056 21.9029521,13.8511461 21.8094451,13.8622822 C20.8673627,13.9792104 19.8154097,14.8183889 19.8154097,16.2700484 C19.8154097,17.6278473 20.7917779,18.7303131 22.1741222,18.7303131 C23.5245183,18.7303131 24.5219256,17.6485285 24.5219256,16.3225468 C24.5219256,14.7849808 23.6390643,14.2226119 23.6390643,12.8974257 C23.6390643,11.7838238 24.3458209,11.1053221 25.2699811,11.1053221 C26.0803746,11.1053221 26.7349232,11.5618989 26.9328462,12.5792537 C26.9429761,12.6747053 26.9640152,12.8019741 26.9640152,12.8974257 Z M27.6598627,13.7986478 C26.9429761,13.7986478 26.3718046,14.1701135 26.0079067,14.8064574 L26.0079067,13.9259166 L25.2910202,13.9259166 L25.2910202,21.5 L26.0102444,21.5 L26.0102444,16.0910767 C26.0102444,15.0307687 26.7271309,14.4047653 27.5998624,14.4047653 C28.6073996,14.4047653 29.2728574,15.2001952 29.2728574,16.1968689 C29.2728574,17.2897896 28.6596077,18.1273773 27.5998624,18.1273773 C27.3362056,18.132302 27.0743871,18.0816655 26.8307678,17.9786319 L26.8307678,18.6046352 C27.0797718,18.6847265 27.3388239,18.7275941 27.5998624,18.731904 C29.0959734,18.731904 29.9998738,17.6183021 29.9998738,16.1968689 C30.006361,15.5610315 29.7624833,14.9491596 29.3229677,14.4985592 C28.883452,14.0479588 28.285106,13.7963659 27.6622003,13.8002386 L27.6598627,13.7986478 Z M17.1660464,13.7986478 C16.2411069,13.7986478 15.5351295,14.2337479 15.3792846,14.975884 L16.0961711,14.975884 C16.2418861,14.5519199 16.6470829,14.4031745 17.1660464,14.4031745 C17.779296,14.4031745 18.2881296,14.6680526 18.2881296,15.379167 L18.2881296,15.5064358 C18.2881296,15.7609733 18.1634537,15.9200593 17.841634,15.9200593 L16.7709795,15.9200593 C15.8359101,15.9200593 15.1914915,16.439475 15.1914915,17.2985393 C15.1914915,18.136127 15.887339,18.7303131 16.8434474,18.7303131 C17.435658,18.7303131 17.9865698,18.4972522 18.2982596,17.9563598 L18.2982596,18.6030443 L19.0050162,18.6030443 L19.0050162,15.3895076 C19.0050162,14.4246511 18.2982596,13.7986478 17.1660464,13.7986478 Z M18.2881296,16.9063924 C18.2881296,17.7543206 17.643711,18.147263 16.9579934,18.147263 C16.1888988,18.147263 15.9185079,17.7018223 15.9185079,17.2985393 C15.9185079,16.8109408 16.1990288,16.4712922 16.8746164,16.4712922 L17.7060489,16.4712922 C17.9452709,16.4712922 18.1735836,16.4291344 18.2873504,16.2907296 L18.2881296,16.9063924 Z M4.34780341,13.7986478 C3.03870625,13.7986478 2,14.8271386 2,16.2700484 C2,17.7129583 3.03636858,18.7303131 4.34780341,18.7303131 C5.65923823,18.7303131 6.70651596,17.7121628 6.70651596,16.2700484 C6.70651596,14.8279341 5.6646928,13.7986478 4.34780341,13.7986478 Z M4.34780341,18.1257864 C3.37143511,18.1257864 2.72701645,17.3303565 2.72701645,16.2700484 C2.72701645,15.2097404 3.36831821,14.4031745 4.34780341,14.4031745 C5.3272886,14.4031745 5.9763826,15.208945 5.9763826,16.2700484 C5.9763826,17.3311519 5.33196394,18.1257864 4.34780341,18.1257864 Z" id="OmaSp" fill="#1DCA7A"></path>
    </g>
</svg>

<svg width="32" height="32" xmlns="http://www.w3.org/2000/svg"><path d="M0 0h32v32H0V0zm12.668 14.403c.644 0 1.038.403 1.038 1.124v3.076h.717v-3.107c0-1.028-.592-1.697-1.672-1.697-.842 0-1.33.414-1.6.976-.219-.55-.79-.976-1.549-.976-.602 0-1.1.223-1.455.796v-.668h-.706v4.677h.717v-2.949c0-.69.509-1.251 1.362-1.251.654 0 1.05.403 1.05 1.124v3.076h.713v-2.896c0-.816.56-1.305 1.381-1.305h.004zm14.296-1.506h.696a1.988 1.988 0 0 0-.031-.413c-.229-1.273-1.247-1.984-2.37-1.984-1.308 0-2.358 1.018-2.358 2.397 0 1.495.883 2.036.883 3.436 0 1.018-.623 1.792-1.6 1.792-1.008 0-1.652-.849-1.652-1.856 0-1.007.623-1.676 1.32-1.792a1.84 1.84 0 0 1 .238-.021v-.615c-.073 0-.187.01-.28.021-.943.117-1.995.956-1.995 2.408 0 1.358.977 2.46 2.36 2.46 1.35 0 2.347-1.081 2.347-2.407 0-1.538-.883-2.1-.883-3.426 0-1.113.707-1.792 1.631-1.792.81 0 1.465.457 1.663 1.474.01.096.031.223.031.318zm.696.902c-.717 0-1.288.371-1.652 1.007v-.88h-.717V21.5h.72v-5.409c0-1.06.716-1.686 1.589-1.686 1.007 0 1.673.795 1.673 1.792 0 1.093-.613 1.93-1.673 1.93a1.883 1.883 0 0 1-.77-.148v.626c.25.08.509.123.77.127 1.496 0 2.4-1.114 2.4-2.535a2.398 2.398 0 0 0-.677-1.698 2.3 2.3 0 0 0-1.66-.699l-.003-.001zm-10.494 0c-.925 0-1.63.435-1.787 1.177h.717c.146-.424.551-.573 1.07-.573.613 0 1.122.265 1.122.976v.127c0 .255-.125.414-.446.414H16.77c-.935 0-1.58.52-1.58 1.379 0 .837.696 1.431 1.652 1.431.593 0 1.144-.233 1.455-.774v.647h.707V15.39c0-.965-.707-1.591-1.839-1.591zm1.122 3.107c0 .848-.644 1.241-1.33 1.241-.77 0-1.04-.445-1.04-.848 0-.488.281-.828.957-.828h.831c.24 0 .468-.042.581-.18l.001.615zM4.348 13.8C3.038 13.799 2 14.827 2 16.27s1.036 2.46 2.348 2.46c1.311 0 2.359-1.018 2.359-2.46s-1.042-2.471-2.36-2.471zm0 4.327c-.977 0-1.621-.796-1.621-1.856s.641-1.867 1.62-1.867c.98 0 1.63.806 1.63 1.867s-.645 1.856-1.63 1.856z" fill="#1DCA7A" fill-rule="evenodd"/></svg>
